X:15806
T:Speed the Plough. GS.052
M:2/2
L:1/8
Q:200
S:George Spencer m/s, Leeds,1831
R:Reel
O:England
A:Leeds
N:The date 1831 is written at the end of the tune.
H:1831
Z:vmp.Cherri Graebe
K:A major
z|A2 Ac efec | efec eaec | dfdB cecA | GBBA GB B2 | A2 Ac efec |! efec e
ae
c |
 d2 dB c2cA | GBAG A2 A :||: e | aaaA aAeA | aAgA fAeA |! d2dB c2 cA | G
BBA GBBd |
 cAce aece | fgaf ecAc | dfdB cecA | GBAG A2 A :||


